svgs/photoswooper.svg

<svg width="192" height="192" viewBox="0 0 192 192" fill="none" xmlns="http://www.w3.org/2000/svg">
<path d="M82.6531 60.8334H69C64.5817 60.8334 61 64.448 61 68.9068V142.927C61 147.385 64.5817 151 69 151H142.347C146.765 151 150.347 147.385 150.347 142.927V129.148M82.6531 60.8334V121.075C82.6531 125.534 86.2348 129.148 90.6531 129.148H101.214M82.6531 60.8334V49.0734C82.6531 44.6146 86.2348 41 90.6531 41H162C166.418 41 170 44.6146 170 49.0734V99.9492M150.347 129.148H162C166.418 129.148 170 125.534 170 121.075V99.9492M150.347 129.148H101.214M101.214 129.148L130.989 86.9839C133.319 83.6844 137.712 82.6387 141.257 84.5396L170 99.9492M22 50.0826H41M22 85.4037H41M22 120.725H41" stroke="black" stroke-width="12" stroke-linecap="round" stroke-linejoin="round"/>
<path d="M113 66C113 68.7614 110.761 71 108 71C105.239 71 103 68.7614 103 66C103 63.2386 105.239 61 108 61C110.761 61 113 63.2386 113 66Z" stroke="black" stroke-width="10"/>
</svg>

<svg xmlns="http://www.w3.org/2000/svg" width="192" height="192" fill="none" viewBox="0 0 192 192"><path stroke="#000" stroke-linecap="round" stroke-linejoin="round" stroke-width="12" d="M82.653 60.833H69c-4.418 0-8 3.615-8 8.074v74.02c0 4.458 3.582 8.073 8 8.073h73.347c4.418 0 8-3.615 8-8.073v-13.779M82.653 60.833v60.242c0 4.459 3.582 8.073 8 8.073h10.561m-18.56-68.315v-11.76c0-4.458 3.58-8.073 8-8.073H162c4.418 0 8 3.615 8 8.073V99.95m-19.653 29.199H162c4.418 0 8-3.614 8-8.073V99.949m-19.653 29.199h-49.133m0 0 29.775-42.164c2.33-3.3 6.723-4.345 10.268-2.444L170 99.95M22 50.082h19m-19 35.32h19m-19 35.322h19"/><path stroke="#000" stroke-width="10" d="M113 66a5 5 0 1 1-10 0 5 5 0 0 1 10 0Z"/></svg>
